edgejs-icon.svg

<svg viewBox="0 0 455 171" fill="none" xmlns="http://www.w3.org/2000/svg">
    <path d="M413.973 142c-2.2 0-3.9-.567-5.1-1.7-1.134-1.2-1.7-2.9-1.7-5.1V78.3c0-2.2.566-3.867 1.7-5 1.2-1.2 2.9-1.8 5.1-1.8h35.7c1.666 0 2.933.433 3.8 1.3.933.867 1.4 2.1 1.4 3.7 0 1.667-.467 2.967-1.4 3.9-.867.867-2.134 1.3-3.8 1.3h-30.2v19.4h28c1.733 0 3.033.433 3.9 1.3.866.867 1.3 2.133 1.3 3.8 0 1.667-.434 2.933-1.3 3.8-.867.867-2.167 1.3-3.9 1.3h-28v20.5h30.2c1.666 0 2.933.433 3.8 1.3.933.867 1.4 2.133 1.4 3.8 0 1.667-.467 2.933-1.4 3.8-.867.867-2.134 1.3-3.8 1.3h-35.7ZM371.44 143c-7.8 0-14.4-1.467-19.8-4.4-5.333-2.933-9.4-7.1-12.2-12.5-2.8-5.4-4.2-11.8-4.2-19.2 0-5.6.8-10.633 2.4-15.1 1.667-4.467 4.033-8.267 7.1-11.4 3.133-3.2 6.933-5.633 11.4-7.3 4.467-1.733 9.533-2.6 15.2-2.6 3.733 0 7.467.467 11.2 1.4 3.8.867 7.367 2.367 10.7 4.5 1.133.733 1.867 1.633 2.2 2.7.4 1.067.467 2.167.2 3.3a6.367 6.367 0 0 1-1.5 2.8c-.733.8-1.667 1.3-2.8 1.5-1.067.2-2.267-.067-3.6-.8-2.533-1.467-5.1-2.533-7.7-3.2-2.6-.667-5.5-1-8.7-1-4.933 0-9.1 1-12.5 3-3.4 1.933-5.967 4.767-7.7 8.5-1.667 3.733-2.5 8.3-2.5 13.7 0 8.2 1.967 14.433 5.9 18.7 3.933 4.267 9.767 6.4 17.5 6.4 2.667 0 5.367-.267 8.1-.8a54.59 54.59 0 0 0 8-2.2l-2.5 5.7v-21.3h-11c-1.667 0-2.967-.433-3.9-1.3-.867-.867-1.3-2.033-1.3-3.5 0-1.533.433-2.7 1.3-3.5.933-.8 2.233-1.2 3.9-1.2h16.5c1.667 0 2.933.467 3.8 1.4.933.867 1.4 2.133 1.4 3.8v24.3c0 1.467-.3 2.7-.9 3.7-.533 1-1.433 1.733-2.7 2.2-2.933 1.067-6.3 1.967-10.1 2.7-3.8.667-7.533 1-11.2 1ZM272.168 142c-2.2 0-3.9-.567-5.1-1.7-1.133-1.2-1.7-2.9-1.7-5.1V78.3c0-2.2.567-3.867 1.7-5 1.2-1.2 2.9-1.8 5.1-1.8h19.4c11.8 0 20.9 3.033 27.3 9.1 6.467 6.067 9.7 14.767 9.7 26.1 0 5.667-.833 10.7-2.5 15.1-1.6 4.333-4 8-7.2 11-3.133 3-7 5.3-11.6 6.9-4.533 1.533-9.767 2.3-15.7 2.3h-19.4Zm6-10.6h12.6c4.133 0 7.7-.5 10.7-1.5 3.067-1.067 5.6-2.6 7.6-4.6 2.067-2.067 3.6-4.633 4.6-7.7 1-3.133 1.5-6.767 1.5-10.9 0-8.267-2.033-14.433-6.1-18.5s-10.167-6.1-18.3-6.1h-12.6v49.3ZM216.5 142c-2.2 0-3.9-.567-5.1-1.7-1.133-1.2-1.7-2.9-1.7-5.1V78.3c0-2.2.567-3.867 1.7-5 1.2-1.2 2.9-1.8 5.1-1.8h35.7c1.667 0 2.933.433 3.8 1.3.933.867 1.4 2.1 1.4 3.7 0 1.667-.467 2.967-1.4 3.9-.867.867-2.133 1.3-3.8 1.3H222v19.4h28c1.733 0 3.033.433 3.9 1.3s1.3 2.133 1.3 3.8c0 1.667-.433 2.933-1.3 3.8s-2.167 1.3-3.9 1.3h-28v20.5h30.2c1.667 0 2.933.433 3.8 1.3.933.867 1.4 2.133 1.4 3.8 0 1.667-.467 2.933-1.4 3.8-.867.867-2.133 1.3-3.8 1.3h-35.7Z" fill="currentColor"></path>
    <path d="M160.185 160.186H9.921V9.921h150.264v150.265ZM164.646 1H5.461A4.46 4.46 0 0 0 1 5.46v159.186a4.461 4.461 0 0 0 4.46 4.461h159.186a4.461 4.461 0 0 0 4.461-4.461V5.461A4.462 4.462 0 0 0 164.646 1Z" fill="var(--teal-a10)" stroke="var(--teal-a10)" stroke-width="2"></path>
    <path d="M56.063 41s-18.142 21.77 0 43.54c18.141 21.771 0 43.541 0 43.541M85.09 41s-18.142 21.77 0 43.54c18.141 21.771 0 43.541 0 43.541M114.117 41s-18.141 21.77 0 43.54c18.142 21.771 0 43.541 0 43.541" stroke="var(--teal-a10)" stroke-width="11" stroke-linecap="round" stroke-linejoin="round"></path>
</svg>

<?xml version="1.0" encoding="UTF-8" standalone="no"?>
<!DOCTYPE svg PUBLIC "-//W3C//DTD SVG 1.1//EN" "http://www.w3.org/Graphics/SVG/1.1/DTD/svg11.dtd">
<svg width="100%" height="100%" viewBox="0 0 171 171" version="1.1" xmlns="http://www.w3.org/2000/svg" xmlns:xlink="http://www.w3.org/1999/xlink" xml:space="preserve" xmlns:serif="http://www.serif.com/" style="fill-rule:evenodd;clip-rule:evenodd;stroke-linecap:round;stroke-linejoin:round;stroke-miterlimit:2;">
    <path d="M160.185,160.186L9.921,160.186L9.921,9.921L160.185,9.921L160.185,160.186ZM164.646,1L5.461,1C5.461,1 5.46,1 5.46,1C3.013,1 1,3.013 1,5.46L1,164.646C1,167.093 3.013,169.106 5.46,169.107L164.646,169.107C167.093,169.107 169.107,167.093 169.107,164.646L169.107,5.461C169.106,3.014 167.093,1.001 164.646,1Z" style="fill:rgb(13,206,180);fill-rule:nonzero;"/>
    <path d="M56.063,41C56.063,41 37.921,62.77 56.063,84.54C74.204,106.311 56.063,128.081 56.063,128.081M85.09,41C85.09,41 66.948,62.77 85.09,84.54C103.231,106.311 85.09,128.081 85.09,128.081M114.117,41C114.117,41 95.976,62.77 114.117,84.54C132.259,106.311 114.117,128.081 114.117,128.081" style="fill:none;fill-rule:nonzero;stroke:rgb(13,206,180);stroke-width:10px;"/>
</svg>
